Simply-White-Circles/scalable/apps/todoist.svg

<svg xmlns="http://www.w3.org/2000/svg" width="48" height="48" viewBox="0 0 12.7 12.7"><path d="M6.34.07a6.29 6.29 0 0 0-6.29 6.3 6.29 6.29 0 0 0 6.3 6.28 6.29 6.29 0 0 0 6.28-6.29A6.29 6.29 0 0 0 6.34.07zm-.01.94a5.4 5.4 0 0 1 5.4 5.4 5.4 5.4 0 0 1-5.4 5.41 5.4 5.4 0 0 1-4.66-2.66l.95.44a.5.5 0 0 0 .42 0l4.5-2.53c.5-.21.36-.95-.18-.97a.5.5 0 0 0-.22.04L2.84 8.6 1.1 7.77a5.4 5.4 0 0 1-.17-.99l1.7.8a.5.5 0 0 0 .4 0l4.51-2.54c.5-.21.36-.95-.18-.97a.5.5 0 0 0-.22.04l-4.3 2.45-1.86-.87a5.4 5.4 0 0 1 .17-.83l1.47.69a.5.5 0 0 0 .42 0L7.54 3c.5-.21.36-.95-.18-.97a.5.5 0 0 0-.22.05l-4.3 2.44-1.3-.61A5.4 5.4 0 0 1 6.33 1z" fill="#e6e6e6"/></svg>

<?xml version="1.0" encoding="UTF-8" standalone="no"?>
<svg
   xmlns:dc="http://purl.org/dc/elements/1.1/"
   xmlns:cc="http://creativecommons.org/ns#"
   xmlns:rdf="http://www.w3.org/1999/02/22-rdf-syntax-ns#"
   xmlns:svg="http://www.w3.org/2000/svg"
   xmlns="http://www.w3.org/2000/svg"
   xmlns:sodipodi="http://sodipodi.sourceforge.net/DTD/sodipodi-0.dtd"
   xmlns:inkscape="http://www.inkscape.org/namespaces/inkscape"
   width="48"
   height="48"
   viewBox="0 0 12.7 12.7"
   version="1.1"
   id="svg4"
   sodipodi:docname="todoist.svg"
   inkscape:version="0.92.4 (5da689c313, 2019-01-14)">
  <metadata
     id="metadata10">
    <rdf:RDF>
      <cc:Work
         rdf:about="">
        <dc:format>image/svg+xml</dc:format>
        <dc:type
           rdf:resource="http://purl.org/dc/dcmitype/StillImage" />
        <dc:title></dc:title>
      </cc:Work>
    </rdf:RDF>
  </metadata>
  <defs
     id="defs8" />
  <sodipodi:namedview
     pagecolor="#ffffff"
     bordercolor="#666666"
     borderopacity="1"
     objecttolerance="10"
     gridtolerance="10"
     guidetolerance="10"
     inkscape:pageopacity="0"
     inkscape:pageshadow="2"
     inkscape:window-width="1087"
     inkscape:window-height="480"
     id="namedview6"
     showgrid="false"
     inkscape:zoom="4.9166667"
     inkscape:cx="2.1355932"
     inkscape:cy="24"
     inkscape:window-x="0"
     inkscape:window-y="25"
     inkscape:window-maximized="0"
     inkscape:current-layer="svg4" />
  <path
     d="M 6.34,0.07 A 6.29,6.29 0 0 0 0.05,6.37 6.29,6.29 0 0 0 6.35,12.65 6.29,6.29 0 0 0 12.63,6.36 6.29,6.29 0 0 0 6.34,0.07 Z M 6.33,1.01 a 5.4,5.4 0 0 1 5.4,5.4 5.4,5.4 0 0 1 -5.4,5.41 A 5.4,5.4 0 0 1 1.67,9.16 L 2.62,9.6 a 0.5,0.5 0 0 0 0.42,0 L 7.54,7.07 C 8.04,6.86 7.9,6.12 7.36,6.1 A 0.5,0.5 0 0 0 7.14,6.14 L 2.84,8.6 1.1,7.77 A 5.4,5.4 0 0 1 0.93,6.78 l 1.7,0.8 a 0.5,0.5 0 0 0 0.4,0 L 7.54,5.04 C 8.04,4.83 7.9,4.09 7.36,4.07 A 0.5,0.5 0 0 0 7.14,4.11 L 2.84,6.56 0.98,5.69 A 5.4,5.4 0 0 1 1.15,4.86 l 1.47,0.69 a 0.5,0.5 0 0 0 0.42,0 L 7.54,3 C 8.04,2.79 7.9,2.05 7.36,2.03 A 0.5,0.5 0 0 0 7.14,2.08 L 2.84,4.52 1.54,3.91 A 5.4,5.4 0 0 1 6.33,1 Z"
     id="path2"
     inkscape:connector-curvature="0"
     style="fill:#e6e6e6" />
</svg>
